X:5935
T:Gan Ainm
R:Reel
S:Natalie McMaster
H:
N:
D:Solo Album #1
Z:Adrian Scahill
M:4/4
L:1/8
K:C
EF|G^FGE A=FcA|GECE GEAG|FEDF EDCE|DG^FA G=FEF|\
G^FGE A=FcA|GECE GABc|ABcA BcdB|1 (3cBc e2 c2 EF:|2 (3cBc e2 c2 Bc||\
eEdE cEBE|cEBE AEcE|BE^GB edcB|c2 Bc ABcd|\
eEdE cEBE|cEBE AEcE|Bcde fdBd|c2 e2 c2 Bc:||


